tools/download-figma-icons/icons/outlined-medium/shopping-cart.svg

<svg width="24" height="24" viewBox="0 0 24 24" fill="none" xmlns="http://www.w3.org/2000/svg">
<path fill-rule="evenodd" clip-rule="evenodd" d="M7.29748 14.2499H20.4141L22.2891 6.74993H5.34L7.29748 14.2499ZM23.2498 5.24995C23.4808 5.24995 23.699 5.35645 23.8408 5.53869C23.9833 5.72019 24.0335 5.95719 23.9773 6.18144L21.7273 15.1813C21.644 15.5151 21.344 15.7498 20.9998 15.7498H7.68817L8.07967 17.2498H20.2498C20.6645 17.2498 20.9998 17.5851 20.9998 17.9998C20.9998 18.4146 20.6645 18.7498 20.2498 18.7498H7.49992H7.49917C7.40618 18.7498 7.31693 18.7288 7.23218 18.6958C7.21316 18.6885 7.19637 18.6786 7.17911 18.6685C7.16982 18.6631 7.1604 18.6576 7.15043 18.6523C7.09868 18.6246 7.05068 18.5946 7.00643 18.5548C6.98093 18.5323 6.95918 18.5076 6.93593 18.4806C6.89993 18.4386 6.86993 18.3936 6.84443 18.3441C6.82718 18.3118 6.81143 18.2803 6.80018 18.2451C6.79699 18.2368 6.7927 18.229 6.78843 18.2213C6.78268 18.2108 6.77695 18.2004 6.77393 18.1888L2.42098 1.49998H0.749992C0.335997 1.49998 0 1.16474 0 0.749992C0 0.335247 0.335997 0 0.749992 0H2.99997C3.01109 0 3.02108 0.00293981 3.03093 0.00583922C3.03902 0.00822001 3.04701 0.0105736 3.05547 0.0112499C3.10347 0.0149998 3.14697 0.0262497 3.19197 0.0389996C3.24297 0.0524995 3.29247 0.0659993 3.33822 0.0899991C3.36902 0.106015 3.39526 0.125574 3.42236 0.145765C3.42825 0.150156 3.43419 0.154577 3.44022 0.158998C3.48371 0.191248 3.52421 0.222748 3.55946 0.263247C3.58821 0.295675 3.60898 0.331 3.63105 0.368511L3.63221 0.370496C3.65996 0.416246 3.68471 0.461245 3.70271 0.512995C3.70543 0.520813 3.70954 0.527707 3.71363 0.534583C3.71858 0.54288 3.7235 0.551152 3.72596 0.560994L4.9492 5.24995H23.2498ZM10.5001 22.4998C10.0861 22.4998 9.7501 22.1638 9.7501 21.7498C9.7501 21.3358 10.0861 20.9998 10.5001 20.9998C10.9141 20.9998 11.2501 21.3358 11.2501 21.7498C11.2501 22.1638 10.9141 22.4998 10.5001 22.4998ZM10.5001 19.4998C9.25961 19.4998 8.25012 20.5093 8.25012 21.7498C8.25012 22.9903 9.25961 23.9998 10.5001 23.9998C11.7406 23.9998 12.7501 22.9903 12.7501 21.7498C12.7501 20.5093 11.7406 19.4998 10.5001 19.4998ZM17.25 22.4998C16.836 22.4998 16.5 22.1638 16.5 21.7498C16.5 21.3358 16.836 20.9998 17.25 20.9998C17.664 20.9998 18 21.3358 18 21.7498C18 22.1638 17.664 22.4998 17.25 22.4998ZM17.25 19.4998C16.0095 19.4998 15 20.5093 15 21.7498C15 22.9903 16.0095 23.9998 17.25 23.9998C18.4905 23.9998 19.5 22.9903 19.5 21.7498C19.5 20.5093 18.4905 19.4998 17.25 19.4998Z" fill="black"/>
</svg>

<svg xmlns="http://www.w3.org/2000/svg" width="24" height="24" fill="none" viewBox="0 0 24 24"><path fill="currentColor" fill-rule="evenodd" d="M7.297 14.25h13.117l1.875-7.5H5.34zm15.953-9a.75.75 0 0 1 .727.931l-2.25 9a.75.75 0 0 1-.727.569H7.688l.392 1.5h12.17a.75.75 0 1 1 0 1.5H7.5a.7.7 0 0 1-.268-.054q-.028-.012-.053-.027l-.029-.017a.7.7 0 0 1-.214-.171.7.7 0 0 1-.092-.137 1 1 0 0 1-.044-.099l-.012-.024q-.008-.015-.014-.032L2.42 1.5H.75a.75.75 0 1 1 0-1.5H3q.017 0 .03.006.013.004.025.005a.7.7 0 0 1 .137.028c.051.013.1.027.146.051q.045.025.084.056l.018.013a.7.7 0 0 1 .12.104 1 1 0 0 1 .071.106l.001.001q.043.067.07.143.005.012.012.022.008.012.012.026L4.949 5.25zM10.5 22.5a.75.75 0 1 1 0-1.5.75.75 0 0 1 0 1.5m0-3c-1.24 0-2.25 1.01-2.25 2.25S9.26 24 10.5 24s2.25-1.01 2.25-2.25-1.01-2.25-2.25-2.25m6.75 3a.75.75 0 1 1 0-1.5.75.75 0 0 1 0 1.5m0-3c-1.24 0-2.25 1.01-2.25 2.25S16.01 24 17.25 24s2.25-1.01 2.25-2.25-1.01-2.25-2.25-2.25" clip-rule="evenodd"/></svg>
